public/avatar/item0/30.svg

<svg xmlns:xlink="http://www.w3.org/1999/xlink" height="58.65" width="49.15" xmlns="http://www.w3.org/2000/svg"><use height="4.9" transform="translate(10.7 32.85)" width="26.1" xlink:href="#a"/><defs><g id="a"><path d="M10.4 14.8q2.4-.05 1.65 2.35-.7 2.45-3 2.4-.95 0-1.7-1t-.5-1.85q.2-.75 1.5-1.35 1.15-.55 2.05-.55" fill="#fff" fill-rule="evenodd" transform="translate(13.4 -14.75)"/><path d="m8.95 15.25 1.5 3.9m1.75-3.25L7.45 18" fill="none" stroke="red" stroke-linecap="round" stroke-linejoin="round" transform="translate(13.4 -14.75)"/><path d="M-11.15 14.8q.9 0 2.05.55 1.3.6 1.55 1.35.25.85-.55 1.85-.75 1-1.7 1-2.25.05-3-2.4-.75-2.4 1.65-2.35" fill="#fff" fill-rule="evenodd" transform="translate(13.4 -14.75)"/><path d="m-9.65 15.25-1.5 3.9m-1.75-3.25 4.75 2.1" fill="none" stroke="red" stroke-linecap="round" stroke-linejoin="round" transform="translate(13.4 -14.75)"/></g></defs></svg>

<?xml version="1.0" encoding="UTF-8" standalone="no"?>
<svg xmlns:xlink="http://www.w3.org/1999/xlink" height="58.65px" width="49.15px" xmlns="http://www.w3.org/2000/svg">
  <g transform="matrix(1.0, 0.0, 0.0, 1.0, 24.1, 18.1)">
    <use height="4.9" transform="matrix(1.0, 0.0, 0.0, 1.0, -13.4, 14.75)" width="26.1" xlink:href="#shape0"/>
  </g>
  <defs>
    <g id="shape0" transform="matrix(1.0, 0.0, 0.0, 1.0, 13.4, -14.75)">
      <path d="M10.4 14.8 Q12.8 14.75 12.05 17.15 11.35 19.6 9.05 19.55 8.1 19.55 7.35 18.55 6.6 17.55 6.85 16.7 7.05 15.95 8.35 15.35 9.5 14.8 10.4 14.8" fill="#ffffff" fill-rule="evenodd" stroke="none"/>
      <path d="M8.95 15.25 L10.45 19.15" fill="none" stroke="#ff0000" stroke-linecap="round" stroke-linejoin="round" stroke-width="1.0"/>
      <path d="M12.2 15.9 L7.45 18.0" fill="none" stroke="#ff0000" stroke-linecap="round" stroke-linejoin="round" stroke-width="1.0"/>
      <path d="M-11.15 14.8 Q-10.25 14.8 -9.1 15.35 -7.8 15.95 -7.55 16.7 -7.3 17.55 -8.1 18.55 -8.85 19.55 -9.8 19.55 -12.05 19.6 -12.8 17.15 -13.55 14.75 -11.15 14.8" fill="#ffffff" fill-rule="evenodd" stroke="none"/>
      <path d="M-9.65 15.25 L-11.15 19.15" fill="none" stroke="#ff0000" stroke-linecap="round" stroke-linejoin="round" stroke-width="1.0"/>
      <path d="M-12.9 15.9 L-8.15 18.0" fill="none" stroke="#ff0000" stroke-linecap="round" stroke-linejoin="round" stroke-width="1.0"/>
    </g>
  </defs>
</svg>
